svgs/box.svg

<?xml version="1.0" encoding="UTF-8"?>
<svg width="192px" height="192px" viewBox="0 0 192 192" version="1.1" xmlns="http://www.w3.org/2000/svg" xmlns:xlink="http://www.w3.org/1999/xlink">
    <title>Artboard Copy 7</title>
    <g id="Artboard-Copy-7" stroke="none" stroke-width="1" fill="none" fill-rule="evenodd">
        <path d="M174.589316,129.289795 C176.586662,132.071194 176.187193,135.647278 173.790377,137.633991 C170.994092,139.620705 166.999399,139.223362 165.002052,136.839306 L151.020626,118.958885 L137.43867,136.441963 C135.441323,139.223362 131.44663,139.223362 128.650345,137.236649 C125.85406,135.249935 125.454591,131.673851 127.451937,128.892452 L143.43071,108.230633 L127.451937,87.5688133 C125.454591,84.7874145 126.253529,80.8139877 128.650345,78.8272743 C131.44663,76.8405609 135.441323,77.6352463 137.43867,80.0193023 L151.020626,97.899723 L165.002052,80.8139877 C166.999399,78.0325889 170.594623,77.6352463 173.790377,79.6219597 C176.586662,81.6086731 176.586662,85.5820999 174.589316,88.3634987 L159.010013,108.627975 L174.589316,129.289795 L174.589316,129.289795 Z M101.885901,126.905739 C91.4996994,126.905739 83.1108439,118.958885 83.1108439,108.627975 C83.1108439,98.6944084 91.4996994,90.3502121 101.885901,90.3502121 C112.272103,90.3502121 120.660959,98.6944084 120.660959,108.627975 C120.26149,118.958885 111.872634,126.905739 101.885901,126.905739 Z M46.7591368,126.905739 C36.3729347,126.905739 27.9840793,118.958885 27.9840793,108.627975 C27.9840793,98.6944084 36.3729347,90.3502121 46.7591368,90.3502121 C57.1453388,90.3502121 65.5341943,98.6944084 65.5341943,108.627975 C65.5341943,118.958885 57.1453388,126.905739 46.7591368,126.905739 Z M101.885901,78.4299316 C90.3012914,78.4299316 79.9150894,84.7874145 74.7219884,94.3236389 C69.5288874,84.7874145 59.1426854,78.4299316 47.1586061,78.4299316 C39.9681585,78.4299316 33.5766496,80.8139877 28.3835486,84.3900718 L28.3835486,58.9601402 C28.3835486,55.7813988 25.5872634,53 22.3915089,53 C18.7962852,53 16,55.7813988 16,58.9601402 L16,109.025318 C16.3994693,125.713711 29.9814258,138.826019 46.7591368,138.826019 C58.743216,138.826019 69.1294181,132.071194 74.3225191,122.534969 C79.5156201,132.071194 89.9018221,138.826019 101.486432,138.826019 C118.663612,138.826019 132.645038,125.316368 132.645038,108.230633 C133.044507,91.9395828 119.063082,78.4299316 101.885901,78.4299316 Z" id="Shape" fill="#000000" fill-rule="nonzero"></path>
    </g>
</svg>

<svg width="192" height="192" viewBox="0 0 192 192" xmlns="http://www.w3.org/2000/svg"><path d="M174.59 129.29c1.997 2.781 1.597 6.357-.8 8.344-2.796 1.987-6.79 1.59-8.788-.795l-13.981-17.88-13.582 17.483c-1.998 2.781-5.992 2.781-8.789.795-2.796-1.987-3.195-5.563-1.198-8.345l15.979-20.661-15.98-20.662c-1.996-2.782-1.197-6.755 1.2-8.742 2.796-1.986 6.79-1.192 8.788 1.192L151.02 97.9l13.981-17.085c1.997-2.781 5.593-3.179 8.788-1.192 2.797 1.987 2.797 5.96.8 8.741l-15.58 20.265 15.58 20.662Zm-72.704-2.384c-10.386 0-18.775-7.947-18.775-18.278 0-9.934 8.389-18.278 18.775-18.278s18.775 8.344 18.775 18.278c-.4 10.33-8.788 18.278-18.775 18.278Zm-55.127 0c-10.386 0-18.775-7.947-18.775-18.278 0-9.934 8.389-18.278 18.775-18.278s18.775 8.344 18.775 18.278c0 10.33-8.389 18.278-18.775 18.278Zm55.127-48.476c-11.585 0-21.97 6.357-27.164 15.894-5.193-9.537-15.58-15.894-27.563-15.894-7.19 0-13.582 2.384-18.775 5.96V58.96c0-3.179-2.797-5.96-5.992-5.96C18.796 53 16 55.781 16 58.96v50.065c.4 16.689 13.981 29.801 30.76 29.801 11.983 0 22.37-6.755 27.563-16.291 5.193 9.536 15.579 16.291 27.163 16.291 17.178 0 31.159-13.51 31.159-30.595.4-16.291-13.582-29.801-30.76-29.801Z" fill="#000" fill-rule="nonzero"/></svg>
